rayhan3333/AutonomousSurgicalRobot/Assets/joint_log3.csv
time,j0,j1,j2,j3,j4,j5,jaw
8.99,0.0296,-0.0799,0.0027,-1.6000,-0.8000,-0.8000,0.0000
8.99,0.1628,-0.4799,0.0060,-2.8000,1.2000,0.4000,0.0000
8.99,0.2294,-0.8799,0.0093,-1.6000,3.2000,-0.8000,0.0000
8.99,0.2627,-1.2799,0.0127,-2.8000,4.4000,0.4000,0.0000
8.99,0.2793,-1.6799,0.0160,-1.6000,3.2000,-0.8000,0.0000
8.99,0.2876,-2.0799,0.0193,-2.8000,5.2000,0.4000,0.0000
8.99,0.2917,-2.4799,0.0227,-1.6000,6.4000,-0.8000,0.0000
8.99,0.2937,-2.8799,0.0260,-2.8000,5.2000,0.4000,0.0000
8.99,0.2947,-3.2799,0.0293,-1.6000,6.4000,-0.8000,0.0000
8.99,0.2951,-3.6799,0.0327,-2.8000,5.2000,0.4000,0.0000
8.99,0.2954,-4.0799,0.0360,-1.6000,7.2000,-0.8000,0.0000
8.99,0.2954,-4.4799,0.0393,-2.8000,8.4000,0.4000,0.0000
8.99,0.2954,-4.8799,0.0427,-1.6000,7.2000,-0.8000,0.0000
8.99,0.2954,-5.2799,0.0460,-2.8000,8.4000,0.4000,0.0000
8.99,0.2954,-5.6715,0.0493,-1.6000,7.2000,-0.8000,0.0000
8.99,0.2953,-5.9935,0.0527,-2.8000,9.2000,0.4000,0.0000
8.99,0.2953,-6.1544,0.0560,-1.6000,10.4000,-0.8000,0.0000
8.99,0.2952,-6.2348,0.0593,-2.8000,9.2000,0.4000,0.0000
8.99,0.2952,-6.2748,0.0627,-1.6000,10.4000,-0.8000,0.0000
8.99,0.2951,-6.2948,0.0660,-2.8000,9.2000,0.4000,0.0000
8.99,0.2951,-6.3046,0.0693,-1.6000,10.4000,-0.8000,0.0000
8.99,0.2950,-6.3095,0.0727,-2.8000,9.2000,0.4000,0.0000
8.99,0.2950,-6.3118,0.0760,-1.6000,10.4000,-0.8000,0.0000
8.99,0.2949,-6.3128,0.0793,-2.8000,9.2000,0.4000,0.0000
8.99,0.2949,-6.3133,0.0827,-1.6000,10.4000,-0.8000,0.0000
8.99,0.2948,-6.3134,0.0860,-2.8000,9.2000,0.4000,0.0000
8.99,0.2948,-6.3133,0.0893,-1.6000,10.4000,-0.8000,0.0000
8.99,0.2947,-6.3132,0.0927,-2.8000,9.2000,0.4000,0.0000
8.99,0.2947,-6.3130,0.0960,-1.6000,10.4000,-0.8000,0.0000
8.99,0.2946,-6.3128,0.0993,-2.8000,9.2000,0.4000,0.0000
8.99,0.2945,-6.3127,0.1027,-1.6000,10.4000,-0.8000,0.0000
8.99,0.2945,-6.3125,0.1060,-2.8000,9.2000,0.4000,0.0000
8.99,0.2944,-6.3123,0.1093,-1.6000,10.4000,-0.8000,0.0000
8.99,0.2944,-6.3121,0.1127,-2.8000,9.2000,0.4000,0.0000
8.99,0.2943,-6.3118,0.1160,-1.6000,10.4000,-0.8000,0.0000
8.99,0.2943,-6.3116,0.1193,-2.8000,9.2000,0.4000,0.0000
8.99,0.2942,-6.3114,0.1227,-1.6000,10.4000,-0.8000,0.0000
8.99,0.2942,-6.3112,0.1260,-2.8000,9.2000,0.4000,0.0000
8.99,0.2941,-6.3110,0.1293,-1.6000,10.4000,-0.8000,0.0000
8.99,0.2941,-6.3108,0.1327,-2.8000,9.2000,0.4000,0.0000
8.99,0.2940,-6.3106,0.1360,-1.6000,10.4000,-0.8000,0.0000
8.99,0.2940,-6.3104,0.1393,-2.8000,9.2000,0.4000,0.0000
8.99,0.2939,-6.3102,0.1427,-1.6000,10.4000,-0.8000,0.0000
9.19,0.2139,-6.2301,0.1459,-2.8000,8.4000,0.4000,0.0000
9.19,-0.1861,-5.8317,0.1484,-0.8000,6.4000,-1.6000,0.0000
9.39,-0.5861,-5.4928,0.1491,1.2000,4.4000,-3.6000,0.0000
9.39,-0.9861,-5.3785,0.1474,3.2000,2.4000,-5.6000,0.0000
9.57,-1.3470,-5.3492,0.1473,4.4000,1.2000,-6.8000,0.0000
9.57,-1.5309,-5.4456,0.1504,2.4000,3.2000,-4.8000,0.0000
10.27,-1.5331,-5.5088,0.1517,1.2000,4.4000,-2.8000,0.0000
10.27,-1.1753,-5.6005,0.1485,3.2000,2.4000,-1.6000,0.0000
10.27,-0.9964,-5.6463,0.1463,5.2000,0.4000,-3.6000,0.0000
10.27,-0.9070,-5.6690,0.1452,7.2000,-1.6000,-4.8000,0.0000
10.27,-0.8623,-5.6803,0.1446,9.2000,-3.6000,-3.6000,0.0000
10.27,-0.8400,-5.6858,0.1444,11.2000,-5.6000,-5.0924,0.0000
10.27,-0.8289,-5.6885,0.1442,13.2000,-7.6000,-5.0621,0.0000
10.45,-0.9040,-5.6096,0.1441,14.4000,-8.8000,-7.0621,0.0000
10.45,-1.3040,-5.2096,0.1436,12.4000,-6.8000,-9.0621,0.0000
11.13,-1.7040,-4.8096,0.1438,10.4000,-4.8000,-11.0621,0.0000
11.13,-2.1040,-4.4096,0.1457,8.4000,-2.8000,-13.0621,0.0000
11.13,-2.5040,-4.0096,0.1467,6.4000,-0.8000,-15.0621,0.0000
11.13,-2.9040,-3.6096,0.1471,4.4000,1.2000,-16.2621,0.0000
11.13,-3.2935,-3.2096,0.1474,2.4000,3.2000,-14.2621,0.0000
11.13,-3.6064,-2.8096,0.1475,0.4000,5.2000,-13.0621,0.0000
11.13,-3.7629,-2.4096,0.1476,-1.6000,7.2000,-14.2829,0.0000
11.91,-3.8775,-2.0096,0.1483,-3.6000,8.4000,-12.3661,0.0000
11.91,-4.0798,-1.6096,0.1515,-5.6000,6.4000,-10.3661,0.0000
11.91,-4.1810,-1.2096,0.1542,-7.6000,4.4000,-8.3661,0.0000
11.91,-4.2316,-0.8096,0.1556,-9.6000,2.4000,-6.3661,0.0000
11.91,-4.2569,-0.4096,0.1562,-11.6000,1.2000,-4.3661,0.0000
11.91,-4.2696,-0.0096,0.1565,-13.6000,2.4000,-2.3661,0.0000
11.91,-4.2759,0.3632,0.1567,-15.6000,1.2000,-0.3661,0.0000
11.91,-4.2791,0.6009,0.1568,-17.6000,2.4000,1.6339,0.0000
12.13,-4.2146,0.6265,0.1570,-18.8000,1.2000,3.6339,0.0000
12.13,-3.9175,0.2265,0.1576,-17.6000,3.2000,5.6339,0.0000
13.33,-3.8819,-0.0067,0.1586,-18.0000,4.4000,6.8339,0.0000
13.33,-4.2301,-0.3365,0.1617,-20.0000,6.4000,8.8339,0.0000
13.33,-4.4042,-0.5013,0.1640,-22.0000,8.4000,10.8339,0.0000
13.33,-4.4913,-0.5836,0.1652,-24.0000,10.4000,12.8339,0.0000
13.33,-4.5348,-0.6247,0.1658,-26.0000,12.4000,14.8339,0.0000
13.83,-4.3894,-0.7092,0.1656,-26.0000,11.6000,14.8339,0.0000
13.83,-4.4334,-0.3092,0.1663,-28.0000,10.4000,16.8339,0.0000
13.83,-4.4554,0.0908,0.1667,-30.0000,12.4000,18.8339,0.0000
16.15,-4.1892,-0.1200,0.1666,-29.6000,13.6000,17.6339,0.0000
17.23,-3.9723,-0.4615,0.1639,-30.0000,13.2000,15.6339,0.0000
17.23,-3.9742,-0.8615,0.1606,-32.0000,11.2000,13.6339,0.0000
17.23,-3.9751,-1.2615,0.1575,-33.5735,9.2000,11.6339,0.0000
17.23,-3.9756,-1.6303,0.1558,-33.0676,7.2000,9.6339,0.0000
17.23,-3.9758,-1.8496,0.1550,-31.0676,5.2000,7.6339,0.0000
17.23,-3.9760,-1.9714,0.1545,-28.6676,2.8000,5.2339,0.0000
17.99,-3.8160,-2.1314,0.1551,-27.8676,3.6000,5.2339,0.0000
17.99,-3.4160,-2.5314,0.1575,-25.8676,5.6000,6.4339,0.0000
17.99,-3.0160,-2.9314,0.1587,-23.8676,7.6000,5.2339,0.0000
26.93,-2.6880,-3.3089,0.1595,-21.8676,9.6000,7.2339,0.0000
30.11,-2.6000,-3.4464,0.1598,-21.0676,10.4000,7.2339,0.0000
30.11,-2.2000,-3.8464,0.1600,-19.0676,11.6000,5.2339,0.0000
30.11,-1.8000,-4.2464,0.1601,-17.0676,10.4000,3.2339,0.0000
30.11,-1.4000,-4.6464,0.1602,-15.0676,12.4000,1.2339,0.0000
30.11,-1.0000,-5.0464,0.1602,-13.0676,13.6000,-0.7661,0.0000
31.21,-0.6000,-5.4464,0.1596,-11.0676,11.6000,-1.9661,0.0000
31.21,-0.2000,-5.8254,0.1563,-9.0676,9.6000,0.0339,0.0000
31.21,0.1739,-6.0906,0.1532,-7.8676,7.6000,1.2339,0.0000
31.21,0.4165,-6.2231,0.1513,-9.0676,5.6000,-0.7661,0.0000
31.21,0.5378,-6.2892,0.1503,-7.0676,3.6000,-1.9661,0.0000
31.21,0.5984,-6.3222,0.1498,-5.0676,1.6000,-0.7661,0.0000
31.21,0.6286,-6.3386,0.1496,-3.0676,-0.4000,-1.9661,0.0000
31.21,0.6437,-6.3467,0.1495,-1.5593,-2.4000,-0.7661,0.0000
31.21,0.6513,-6.3506,0.1494,-1.5260,-4.4000,-2.7661,0.0000
31.21,0.6550,-6.3525,0.1494,0.4740,-6.4000,-3.9661,0.0000
31.21,0.6568,-6.3533,0.1494,2.4740,-8.4000,-2.7661,0.0000
31.87,0.5776,-6.2736,0.1489,3.6740,-9.6000,-4.7661,0.0000
31.87,0.1776,-5.8736,0.1469,1.6740,-7.6000,-6.7661,0.0000
31.87,-0.2224,-5.4736,0.1458,-0.3260,-5.6000,-8.7661,0.0000
31.87,-0.6224,-5.0736,0.1453,-2.3260,-4.4000,-10.7661,0.0000
31.87,-1.0224,-4.6736,0.1450,-4.3260,-6.4000,-12.7661,0.0000
31.87,-1.4224,-4.2736,0.1449,-6.3260,-8.4000,-14.7661,0.0000
31.91,-1.8224,-3.8736,0.1452,-8.3260,-9.6000,-15.9661,0.0000
32.33,-2.2224,-3.4736,0.1471,-10.3260,-7.6000,-13.9661,0.0000
32.33,-2.6224,-3.0736,0.1502,-12.3260,-5.6000,-11.9661,0.0000
32.33,-3.0224,-2.6736,0.1519,-14.3260,-3.6000,-9.9661,0.0000
32.33,-3.4224,-2.2736,0.1528,-16.3260,-1.6000,-7.9661,0.0000
32.81,-3.7640,-1.8736,0.1537,-18.3260,0.4000,-5.9661,0.0000
32.81,-3.8615,-1.4736,0.1561,-20.3260,2.4000,-3.9661,0.0000
32.81,-3.9103,-1.0736,0.1573,-22.3260,3.6000,-1.9661,0.0000
32.81,-3.9347,-0.6736,0.1579,-24.3260,2.4000,0.0339,0.0000
32.81,-3.9469,-0.2736,0.1582,-26.3260,3.6000,2.0339,0.0000
33.15,-3.9850,0.0728,0.1576,-27.5260,1.6000,3.2339,0.0000
33.15,-4.1318,0.1915,0.1545,-26.3260,-0.4000,1.2339,0.0000
33.15,-4.2052,0.2509,0.1522,-28.3260,-2.4000,-0.7661,0.0000
34.11,-4.1656,0.3574,0.1519,-29.5260,-3.6000,-1.9661,0.0000
34.11,-3.8403,0.7574,0.1552,-27.5260,-1.6000,0.0339,0.0000
34.11,-3.6777,1.1574,0.1584,-25.5260,0.4000,2.0339,0.0000
34.11,-3.5964,1.5574,0.1606,-24.3260,1.6000,4.0339,0.0000
34.11,-3.5558,1.9190,0.1618,-25.5260,0.4000,6.0339,0.0000
34.11,-3.5355,2.1062,0.1623,-24.3260,1.6000,8.0339,0.0000
34.11,-3.5254,2.1998,0.1626,-25.5260,0.4000,10.0339,0.0000
34.11,-3.5203,2.2468,0.1627,-24.3260,1.6000,12.0339,0.0000
34.11,-3.5178,2.2703,0.1628,-25.5260,0.4000,14.0339,0.0000
34.11,-3.5166,2.2822,0.1629,-24.3260,1.6000,16.0339,0.0000
35.05,-3.5094,2.2403,0.1635,-26.3260,-0.4000,18.0339,0.0000
35.05,-3.4793,2.0282,0.1666,-27.5260,-1.6000,20.0339,0.0000
35.05,-3.4642,1.9222,0.1686,-26.3260,-0.4000,22.0339,0.0000
35.05,-3.4567,1.8693,0.1696,-27.5260,-1.6000,24.0339,0.0000
35.05,-3.4530,1.8429,0.1701,-26.3260,-0.4000,26.0339,0.0000
35.05,-3.4511,1.8298,0.1704,-27.5260,-1.6000,28.0339,0.0000
35.05,-3.4502,1.8233,0.1705,-26.3260,-0.4000,30.0339,0.0000
35.05,-3.4498,1.8201,0.1706,-27.5260,-1.6000,32.0339,0.0000
35.05,-3.4496,1.8186,0.1706,-26.3260,-0.4000,34.0339,0.0000
44.83,-3.2096,1.9590,0.1703,-28.3260,-2.4000,35.2339,0.0000
44.83,-2.8458,2.3590,0.1675,-30.3260,-4.4000,33.2339,0.0000
45.11,-2.5908,2.7227,0.1667,-31.5260,-5.6000,31.2339,0.0000
45.11,-2.1908,2.9194,0.1682,-29.5260,-3.6000,29.2339,0.0000
45.11,-1.7999,3.0178,0.1689,-28.3260,-2.4000,27.2339,0.0000
46.31,-1.7268,3.0553,0.1686,-29.1260,-2.4000,27.2339,0.0000
46.31,-1.3268,3.4553,0.1653,-31.1260,-1.2000,25.2339,0.0000
46.31,-0.9570,3.8553,0.1624,-33.1260,-2.4000,23.2339,0.0000
46.31,-0.7330,4.2162,0.1610,-35.1260,-1.2000,21.2339,0.0000
46.31,-0.6210,4.4002,0.1603,-37.1260,-3.2000,19.2339,0.0000
46.31,-0.5650,4.4923,0.1599,-39.1260,-4.4000,17.2339,0.0000
46.31,-0.5370,4.5384,0.1598,-41.1260,-3.2000,15.2339,0.0000
46.31,-0.5230,4.5615,0.1597,-43.1260,-4.4000,13.2339,0.0000
46.31,-0.5161,4.5732,0.1597,-45.1260,-2.4000,11.2339,0.0000
46.31,-0.5126,4.5791,0.1596,-47.1260,-1.2000,9.2339,0.0000
46.53,-0.5911,4.5029,0.1593,-49.1260,-2.4000,7.2339,0.0000
46.53,-0.9911,4.1481,0.1580,-51.1260,-1.2000,5.2339,0.0000
47.09,-1.3911,3.9105,0.1568,-53.1261,-3.2000,3.2339,0.0000
47.09,-1.7911,3.5105,0.1541,-55.1261,-5.2000,1.2339,0.0000
47.09,-2.1911,3.1256,0.1528,-57.1261,-6.4000,-0.7661,0.0000
47.09,-2.5911,2.8334,0.1522,-59.1261,-4.4000,-2.7661,0.0000
47.09,-2.9841,2.6874,0.1518,-61.1261,-3.2000,-4.7661,0.0000
47.91,-3.2963,2.5426,0.1510,-62.3261,-5.2000,-6.7661,0.0000
47.91,-3.3884,2.1426,0.1478,-60.3261,-7.2000,-8.7661,0.0000
47.91,-3.4345,1.7426,0.1457,-58.3261,-9.2000,-10.7661,0.0000
47.91,-3.4576,1.3426,0.1447,-57.1261,-11.2000,-12.7661,0.0000
47.91,-3.4691,0.9712,0.1442,-59.1261,-13.2000,-14.7661,0.0000
47.91,-3.4749,0.7398,0.1440,-60.3261,-15.2000,-16.7661,0.0000
47.91,-3.4778,0.6243,0.1440,-59.1261,-17.2000,-18.7661,0.0000
47.91,-3.4793,0.5666,0.1440,-61.0008,-19.2000,-20.7661,0.0000
47.91,-3.4801,0.5378,0.1441,-61.6998,-21.2000,-22.7661,0.0000
48.33,-3.4249,0.6051,0.1445,-60.4997,-22.4000,-23.9661,0.0000
48.33,-3.1750,1.0051,0.1460,-62.4998,-20.4000,-21.9661,0.0000
48.33,-3.0501,1.4051,0.1467,-64.4998,-18.4000,-19.9661,0.0000
48.33,-2.9876,1.8051,0.1469,-66.4998,-16.4000,-17.9661,0.0000
48.41,-2.8799,2.2051,0.1475,-68.4998,-14.4000,-15.9661,0.0000
48.75,-2.4799,2.6051,0.1492,-70.4998,-12.4000,-13.9661,0.0000
48.75,-2.1599,2.9251,0.1492,-72.0998,-10.8000,-12.3661,0.0000
48.75,-1.6799,3.4051,0.1492,-74.4998,-8.4000,-10.7661,0.0000
49.50,-1.2799,3.8051,0.1499,-75.6998,-6.4000,-11.9661,0.0000
49.50,-0.8799,4.1835,0.1532,-73.6998,-4.4000,-9.9661,0.0000
49.50,-0.4799,4.4459,0.1565,-71.6998,-2.4000,-7.9661,0.0000
49.50,-0.0830,4.5772,0.1598,-69.6998,-1.2000,-5.9661,0.0000
49.50,0.2629,4.6429,0.1622,-67.6998,-2.9308,-3.9661,0.0000
49.50,0.4359,4.6758,0.1634,-65.6998,-3.0538,-1.9661,0.0000
49.50,0.5223,4.6924,0.1640,-63.6998,-1.8538,0.0339,0.0000
50.23,0.5920,4.6412,0.1649,-61.6998,-3.8538,2.0339,0.0000
50.23,0.7326,4.3776,0.1679,-59.6997,-5.8538,4.0339,0.0000
50.23,0.8029,4.2458,0.1696,-57.6997,-7.8538,6.0339,0.0000
50.23,0.8380,4.1800,0.1705,-55.6997,-9.8538,8.0339,0.0000
50.23,0.8555,4.1472,0.1709,-53.6997,-11.8538,10.0339,0.0000
50.23,0.8642,4.1308,0.1712,-51.6997,-13.8538,12.0339,0.0000
50.23,0.8686,4.1228,0.1713,-49.6997,-15.8538,14.0339,0.0000
50.23,0.8705,4.1192,0.1715,-48.0997,-17.4538,15.6339,0.0000
51.27,0.9510,4.0384,0.1714,-47.6997,-18.6538,16.0339,0.0000
51.27,1.3510,3.6384,0.1712,-49.6997,-20.6538,14.0339,0.0000
51.27,1.7510,3.2722,0.1711,-51.6997,-22.6538,12.0339,0.0000
51.91,1.8750,3.0536,0.1712,-52.4997,-22.6538,11.2339,0.0000
51.91,2.0731,3.4535,0.1686,-54.4997,-20.6538,9.2339,0.0000
51.91,2.1721,3.8134,0.1672,-56.4997,-18.6538,7.2339,0.0000
51.91,2.2215,3.9934,0.1664,-58.4247,-16.6538,5.2339,0.0000
51.91,2.2463,4.0834,0.1660,-59.3248,-14.6538,3.2339,0.0000
52.17,2.1905,4.1877,0.1653,-57.3248,-12.6538,2.0339,0.0000
52.17,1.8904,4.4767,0.1631,-55.3248,-10.6538,3.2339,0.0000
52.23,1.8369,4.5252,0.1625,-54.1248,-9.4538,1.2339,0.0000
52.45,2.2369,4.1252,0.1637,-55.3248,-10.6538,0.0339,0.0000
52.45,2.6369,3.7252,0.1614,-54.1248,-9.4538,1.2339,0.0000
53.27,3.0369,3.3252,0.1598,-56.1248,-10.6538,-0.7661,0.0000
53.27,3.4369,2.9252,0.1565,-58.1248,-8.6538,-2.7661,0.0000
53.27,3.8211,2.5252,0.1540,-60.1248,-6.6538,-3.9661,0.0000
53.27,4.1100,2.1252,0.1527,-62.1248,-4.6538,-2.7661,0.0000
53.27,4.2544,1.7252,0.1520,-64.1248,-2.6538,-4.7661,0.0000
53.27,4.3266,1.3259,0.1517,-66.1248,-0.6538,-6.7661,0.0000
53.27,4.3626,0.9693,0.1515,-68.1248,1.3462,-7.9661,0.0000
53.27,4.3806,0.7911,0.1514,-70.1248,3.3462,-6.7661,0.0000
53.69,4.4666,0.6319,0.1514,-72.1248,5.3462,-7.9661,0.0000
53.69,4.7787,0.3119,0.1516,-73.7249,6.9462,-6.3661,0.0000
53.69,4.9933,-0.1681,0.1517,-76.1249,9.3462,-3.9661,0.0000
53.69,5.0810,-0.5681,0.1517,-78.1249,11.3462,-1.9661,0.0000
55.13,5.0400,-0.8542,0.1515,-79.3249,13.3462,-0.7661,0.0000
55.13,4.6625,-0.7016,0.1499,-77.3249,15.3462,-2.7661,0.0000
55.13,4.4039,-0.6253,0.1492,-76.1249,17.3462,-4.7661,0.0000
55.13,4.2746,-0.5870,0.1489,-78.1249,19.3462,-6.7661,0.0000
55.13,4.2099,-0.5677,0.1488,-80.1249,21.3462,-8.7661,0.0000
55.13,4.1775,-0.5580,0.1489,-82.1249,23.3462,-10.7661,0.0000
55.13,4.1613,-0.5531,0.1489,-84.1249,25.3462,-12.7661,0.0000
55.13,4.1540,-0.5508,0.1490,-85.7249,26.9462,-14.3661,0.0000
55.13,4.1490,-0.5491,0.1492,-88.1249,29.3462,-12.7661,0.0000
55.13,4.1469,-0.5483,0.1494,-90.1249,31.3462,-14.7661,0.0000
55.13,4.1458,-0.5478,0.1495,-92.1249,33.3462,-16.7661,0.0000
55.13,4.1453,-0.5475,0.1497,-94.1249,35.3462,-18.7661,0.0000
55.13,4.1449,-0.5472,0.1499,-96.1249,37.3462,-20.7661,0.0000
55.13,4.1447,-0.5470,0.1501,-98.1249,39.3462,-21.9661,0.0000
55.13,4.1446,-0.5468,0.1504,-99.3249,41.3462,-20.7661,0.0000
56.65,4.0645,-0.4666,0.1507,-97.3249,42.5462,-21.9661,0.0000
56.65,3.7445,-0.1466,0.1512,-95.7249,40.9462,-20.3661,0.0000
56.65,3.2745,0.3334,0.1513,-93.3249,38.5462,-17.9661,0.0000
56.65,2.9595,0.7334,0.1513,-91.3249,36.5462,-15.9661,0.0000
56.65,2.8020,1.1334,0.1511,-89.3249,34.5462,-13.9661,0.0000
56.65,2.7232,1.5334,0.1509,-87.3249,32.5462,-11.9661,0.0000
56.65,2.6837,1.9334,0.1508,-85.5104,30.5462,-9.9661,0.0000
56.65,2.6640,2.3334,0.1506,-85.0522,28.5462,-7.9661,0.0000
56.65,2.6541,2.7334,0.1504,-86.2522,26.5462,-5.9661,0.0000
56.65,2.6497,3.0534,0.1502,-84.6522,24.9462,-4.3661,0.0000
56.65,2.6466,3.2767,0.1500,-82.2522,22.5462,-1.9661,0.0000
56.65,2.6453,3.3682,0.1499,-80.2522,20.5462,-0.7661,0.0000
56.65,2.6447,3.4089,0.1497,-78.6522,18.9462,-2.3661,0.0000
56.65,2.6442,3.4370,0.1496,-80.2522,16.5462,-0.7661,0.0000
56.65,2.6440,3.4486,0.1495,-79.0522,14.5462,-1.9661,0.0000
57.35,2.5639,3.4740,0.1487,-80.2522,12.5462,-0.7661,0.0000
57.35,2.1639,3.5650,0.1458,-78.2522,11.3462,-2.7661,0.0000
57.35,1.8439,3.6055,0.1444,-76.6522,12.9462,-4.3661,0.0000
57.35,1.4528,3.6334,0.1435,-74.2522,15.3462,-6.7661,0.0000
57.35,1.2928,3.6449,0.1432,-72.2522,16.5462,-8.7661,0.0000
57.35,1.2128,3.6508,0.1431,-70.2521,15.3462,-10.7661,0.0000
57.35,1.1727,3.6538,0.1430,-68.2521,17.3462,-12.7661,0.0000
57.67,1.2349,3.5752,0.1437,-67.0521,18.5462,-13.9661,0.0000
57.67,1.6349,3.1752,0.1468,-69.0521,16.5462,-11.9661,0.0000
57.67,2.0349,2.8091,0.1491,-71.0522,14.5462,-9.9661,0.0000
57.83,2.3549,2.6245,0.1500,-72.6522,12.9462,-8.3661,0.0000
57.83,2.7549,2.2245,0.1480,-74.6522,14.9462,-6.3661,0.0000
58.57,3.1086,1.7445,0.1468,-77.0522,16.5462,-3.9661,0.0000
58.57,2.9231,1.4245,0.1460,-78.6522,14.9462,-2.3661,0.0000
58.57,2.7956,0.9445,0.1453,-81.0522,17.3462,0.0339,0.0000
58.57,2.7434,0.5445,0.1451,-83.0522,18.5462,2.0339,0.0000
58.57,2.7172,0.1445,0.1451,-85.0522,17.3462,4.0339,0.0000
58.57,2.7041,-0.2555,0.1450,-87.0522,18.5462,6.0339,0.0000
58.57,2.6983,-0.5755,0.1450,-88.6522,16.9462,7.6339,0.0000
58.62,2.6146,-1.0555,0.1443,-87.0522,19.3462,6.0339,0.0000
59.13,2.2805,-1.4555,0.1423,-89.0522,20.5462,8.0339,0.0000
59.13,2.2169,-1.8555,0.1455,-91.0522,18.5462,10.0339,0.0000
59.13,2.1850,-2.2555,0.1482,-93.0522,16.5462,11.2339,0.0000
59.13,2.1691,-2.6555,0.1494,-95.0522,14.5462,9.2339,0.0000
59.13,2.1611,-3.0555,0.1500,-97.0523,12.5462,8.0339,0.0000
60.01,2.1735,-3.4555,0.1507,-98.2523,10.5462,9.2339,0.0000
60.01,2.2452,-3.8555,0.1530,-96.2522,8.5462,7.2339,0.0000
60.01,2.2810,-4.2555,0.1541,-94.2522,6.5462,5.2339,0.0000
60.01,2.2989,-4.6555,0.1546,-92.2522,4.5462,3.2339,0.0000
60.01,2.3078,-5.0555,0.1548,-90.2522,2.5462,1.2339,0.0000
60.01,2.3118,-5.3755,0.1549,-88.6522,0.9462,-0.3661,0.0000
60.01,2.3144,-5.6415,0.1550,-86.2522,-1.4538,-2.7661,0.0000
60.01,2.3155,-5.7502,0.1550,-85.0522,-3.4538,-4.7661,0.0000
60.01,2.3160,-5.8045,0.1550,-87.0522,-5.4538,-6.7661,0.0000
60.35,2.3962,-5.7485,0.1557,-88.2522,-7.4538,-8.7661,0.0000
60.35,2.7962,-5.3485,0.1591,-86.2522,-9.4538,-10.7661,0.0000
60.35,3.1706,-4.9485,0.1624,-84.2522,-11.4538,-12.7661,0.0000
60.51,3.3456,-4.6201,0.1642,-82.2522,-12.6538,-13.9661,0.0000
60.51,3.1544,-4.5822,0.1611,-80.2522,-10.6538,-11.9661,0.0000
61.35,3.1070,-4.4853,0.1583,-79.0522,-8.6538,-9.9661,0.0000
61.35,3.2763,-4.1034,0.1551,-81.0522,-6.6538,-7.9661,0.0000
61.35,3.3515,-3.8556,0.1528,-82.6522,-5.0538,-6.3661,0.0000
61.35,3.4032,-3.6851,0.1512,-85.0522,-2.6538,-3.9661,0.0000
61.35,3.4243,-3.6152,0.1506,-87.0522,-0.6538,-1.9661,0.0000
61.35,3.4348,-3.5802,0.1503,-89.0522,1.3462,0.0339,0.0000
61.35,3.4401,-3.5626,0.1501,-90.2522,3.3462,1.2339,0.0000
61.35,3.4426,-3.5537,0.1500,-89.0522,5.3462,0.0339,0.0000
61.77,3.4366,-3.5803,0.1503,-90.2522,6.5462,1.2339,0.0000
61.77,3.4041,-3.7180,0.1519,-88.2522,4.5462,-0.7661,0.0000
61.77,3.3897,-3.7791,0.1526,-86.6522,2.9462,-2.3661,0.0000
61.77,3.3797,-3.8210,0.1531,-84.2522,0.5462,-4.7661,0.0000
62.79,3.4147,-3.7562,0.1529,-83.0522,-0.6538,-5.9661,0.0000
62.79,3.5884,-3.3634,0.1511,-85.0522,1.3462,-3.9661,0.0000
62.79,3.6753,-3.0359,0.1502,-87.0522,3.3462,-1.9661,0.0000
62.79,3.7187,-2.8720,0.1497,-89.0522,5.3462,0.0339,0.0000
62.79,3.7403,-2.7900,0.1495,-91.0522,7.3462,2.0339,0.0000
62.79,3.7511,-2.7489,0.1495,-93.0522,9.3462,4.0339,0.0000
62.79,3.7565,-2.7282,0.1494,-95.0522,11.3462,6.0339,0.0000
62.79,3.7591,-2.7178,0.1495,-97.0523,13.3462,8.0339,0.0000
62.79,3.7604,-2.7125,0.1495,-99.0523,15.3462,10.0339,0.0000
62.79,3.7610,-2.7097,0.1496,-101.0523,17.3462,12.0339,0.0000
63.51,3.8357,-2.6284,0.1496,-102.2523,19.3462,13.2339,0.0000
63.51,4.1705,-2.2391,0.1496,-100.2523,21.3462,11.2339,0.0000
63.51,4.3193,-1.9619,0.1496,-98.6523,22.9462,9.6339,0.0000
63.51,4.4216,-1.7711,0.1497,-96.2522,25.3462,7.2339,0.0000
63.51,4.4634,-1.6930,0.1499,-94.2522,27.3462,6.0339,0.0000
63.51,4.4819,-1.6582,0.1500,-92.6522,28.9462,7.6339,0.0000
63.51,4.4946,-1.6342,0.1502,-90.2522,31.3462,9.2339,0.0000
63.51,4.4998,-1.6242,0.1503,-89.0522,33.3462,8.0339,0.0000
64.95,4.4855,-1.6998,0.1510,-91.0522,34.5462,9.2339,0.0000
64.95,4.4109,-2.0824,0.1531,-93.0522,32.5462,7.2339,0.0000
64.95,4.3735,-2.3642,0.1541,-95.0522,30.5462,5.2339,0.0000
64.95,4.3548,-2.5050,0.1545,-97.0523,28.5462,3.2339,0.0000
64.95,4.3454,-2.5753,0.1546,-98.3016,26.5462,1.2339,0.0000
64.95,4.3407,-2.6104,0.1546,-96.4990,24.5462,-0.7661,0.0000
64.95,4.3383,-2.6278,0.1545,-94.4990,22.5462,-1.9661,0.0000
64.95,4.3372,-2.6355,0.1544,-92.8990,20.9462,-0.3661,0.0000
64.95,4.3364,-2.6406,0.1542,-90.4990,18.5462,-1.9661,0.0000
64.95,4.3361,-2.6427,0.1541,-88.4990,16.5462,-0.7661,0.0000
64.95,4.3359,-2.6436,0.1540,-86.4990,14.5462,-1.9661,0.0000
64.95,4.3357,-2.6439,0.1539,-84.4990,12.5462,-0.7661,0.0000
64.95,4.3356,-2.6440,0.1538,-82.4990,10.5462,-1.9661,0.0000
64.95,4.3355,-2.6439,0.1537,-80.4990,8.5462,-0.7661,0.0000
65.51,4.2555,-2.7181,0.1543,-78.4990,6.5462,-2.7661,0.0000
65.51,3.8555,-3.0521,0.1571,-76.4989,4.5462,-4.7661,0.0000
65.51,3.4859,-3.2190,0.1585,-74.4989,2.5462,-6.7661,0.0000
65.51,3.2627,-3.3023,0.1592,-72.4989,0.5462,-8.7661,0.0000
65.51,3.1635,-3.3393,0.1595,-70.8989,-1.0538,-10.3661,0.0000
65.51,3.0953,-3.3646,0.1597,-68.4989,-3.4538,-11.9661,0.0000
66.81,2.9857,-3.3501,0.1603,-67.6989,-4.2538,-13.5661,0.0000
66.81,3.1517,-3.0207,0.1604,-68.8989,-3.0538,-15.5661,0.0000
66.81,3.2346,-2.8559,0.1604,-67.6989,-4.2538,-17.5661,0.0000
68.49,3.3146,-2.7759,0.1606,-67.2989,-4.6538,-17.1661,0.0000
68.49,3.6954,-2.3759,0.1611,-65.2989,-6.6538,-15.1661,0.0000
68.49,3.9384,-2.0559,0.1613,-63.6989,-8.2538,-13.5661,0.0000
68.49,4.1054,-1.6122,0.1615,-61.2989,-10.6538,-15.1661,0.0000
68.49,4.1737,-1.4158,0.1616,-59.2989,-12.6538,-13.9661,0.0000
68.49,4.2078,-1.3175,0.1617,-57.2989,-14.6538,-15.9661,0.0000
68.49,4.2248,-1.2682,0.1618,-55.2989,-16.6538,-17.1661,0.0000
68.49,4.2323,-1.2463,0.1619,-53.6989,-18.2538,-15.5661,0.0000
68.49,4.2375,-1.2310,0.1620,-51.2988,-20.6538,-17.9661,0.0000
70.81,4.3193,-1.2060,0.1616,-50.0988,-21.8538,-19.1661,0.0000
70.81,4.6393,-1.1281,0.1595,-51.6988,-20.2538,-17.5661,0.0000
70.81,4.9793,-1.0745,0.1580,-50.0988,-17.8538,-15.1661,0.0000
70.81,5.1184,-1.0524,0.1573,-52.0989,-15.8538,-13.1661,0.0000
70.81,5.1879,-1.0413,0.1569,-53.3417,-13.8538,-11.1661,0.0000
71.21,5.1970,-1.1163,0.1564,-51.5132,-11.8538,-9.1661,0.0000
71.21,5.0990,-1.4934,0.1554,-49.5132,-9.8538,-7.1661,0.0000
71.21,5.0500,-1.7503,0.1549,-47.5132,-7.8538,-5.1661,0.0000
71.21,5.0254,-1.8787,0.1545,-45.5132,-5.8538,-3.1661,0.0000
71.45,4.9974,-1.8557,0.1543,-44.3132,-3.8538,-1.9661,0.0000
71.45,4.9207,-1.4557,0.1541,-46.3132,-1.8538,-3.9661,0.0000
71.77,4.8066,-1.0557,0.1543,-48.3132,0.1462,-5.1661,0.0000
71.77,4.4066,-0.6557,0.1561,-50.3132,2.1462,-3.1661,0.0000
71.77,4.0204,-0.2557,0.1570,-51.5132,3.3462,-1.9661,0.0000
72.47,3.8126,0.1164,0.1574,-49.5132,1.3462,-3.1661,0.0000
72.47,4.0415,0.3245,0.1574,-47.9132,-0.2538,-1.5661,0.0000
72.47,4.1845,0.4547,0.1573,-45.9132,-2.2538,0.4339,0.0000
72.47,4.2631,0.5264,0.1573,-47.5132,-4.6538,-1.1661,0.0000
72.47,4.2953,0.5559,0.1573,-46.3132,-6.6538,0.0339,0.0000
72.47,4.3095,0.5690,0.1573,-47.9132,-8.2538,-1.5661,0.0000
72.47,4.3184,0.5773,0.1574,-45.9132,-10.2538,0.4339,0.0000
73.05,4.3427,0.5016,0.1577,-48.3132,-12.6538,-1.9661,0.0000
73.05,4.4322,0.1016,0.1589,-50.3132,-14.6538,-3.9661,0.0000
73.05,4.4769,-0.2667,0.1595,-52.3132,-16.6538,-5.9661,0.0000
73.05,4.4992,-0.4836,0.1599,-54.3132,-18.6538,-7.9661,0.0000
73.05,4.5103,-0.5919,0.1602,-55.5132,-20.6538,-9.9661,0.0000
73.05,4.5152,-0.6400,0.1603,-53.9132,-22.2538,-11.5661,0.0000
74.51,4.3571,-0.6414,0.1615,-53.5132,-22.6538,-12.7661,0.0000
74.51,3.9809,-0.9264,0.1648,-55.5132,-21.4538,-14.7661,0.0000
110.27,3.5809,-1.3264,0.1669,-57.5132,-19.4538,-16.7661,0.0000
110.27,3.1809,-1.7264,0.1681,-59.5132,-17.4538,-18.7661,0.0000
110.27,2.8609,-2.0464,0.1686,-61.1132,-15.8538,-20.3661,0.0000
110.27,2.3809,-2.5264,0.1689,-63.5132,-13.4538,-22.7661,0.0000
110.27,1.9809,-2.9264,0.1690,-65.5132,-11.4538,-24.7661,0.0000
110.27,1.6609,-3.2464,0.1690,-67.1133,-9.8538,-26.3661,0.0000
110.27,1.1809,-3.7015,0.1689,-69.5133,-7.4538,-24.7661,0.0000
110.27,0.7809,-3.9491,0.1689,-71.5133,-5.4538,-26.7661,0.0000
110.27,0.3970,-4.0728,0.1688,-73.5133,-3.4538,-27.9661,0.0000
110.27,0.1096,-4.1346,0.1688,-75.5133,-1.4538,-26.7661,0.0000
110.27,-0.0341,-4.1654,0.1688,-77.5133,0.5462,-27.9661,0.0000
110.27,-0.0980,-4.1790,0.1688,-79.1133,2.1462,-26.3661,0.0000
110.27,-0.1420,-4.1883,0.1688,-81.5133,4.5462,-28.7661,0.0000
110.57,-0.1580,-4.1916,0.1688,-83.1133,6.1462,-30.3661,0.0000
110.57,0.2420,-4.5566,0.1701,-81.1133,4.1462,-32.3661,0.0000
110.57,0.6420,-4.7390,0.1708,-79.1133,2.1462,-34.3661,0.0000
110.63,0.9620,-4.8237,0.1710,-77.5133,0.5462,-35.9661,0.0000
111.29,0.6420,-4.7982,0.1706,-79.1133,2.1462,-34.3661,0.0000
111.29,0.2420,-4.4146,0.1689,-81.1133,4.1462,-32.3661,0.0000
111.29,-0.2380,-4.2036,0.1680,-83.5133,6.5462,-29.9661,0.0000
111.29,-0.5580,-4.1268,0.1677,-85.1133,8.1462,-28.3661,0.0000
111.29,-0.9580,-4.0787,0.1675,-87.1133,10.1462,-26.3661,0.0000
111.29,-1.4380,-4.0521,0.1674,-89.5133,11.7462,-23.9661,0.0000
111.79,-1.7446,-4.0255,0.1680,-91.5133,10.5462,-22.7661,0.0000
111.79,-1.6911,-3.9579,0.1705,-93.1134,12.1462,-24.3661,0.0000
111.79,-1.6577,-3.9156,0.1721,-91.1133,14.1462,-26.3661,0.0000
111.79,-1.6411,-3.8944,0.1730,-89.1133,16.1462,-28.3661,0.0000
111.79,-1.6327,-3.8837,0.1734,-87.1133,18.1462,-30.3661,0.0000
112.75,-1.5486,-3.8869,0.1739,-84.7133,20.5462,-32.7661,0.0000
112.75,-1.1486,-3.9257,0.1745,-82.7133,22.5462,-34.7661,0.0000
112.75,-0.7559,-3.9450,0.1749,-80.7133,24.5462,-36.7661,0.0000
112.75,-0.4650,-3.9535,0.1751,-79.1133,26.1462,-38.3661,0.0000
112.75,-0.2832,-3.9588,0.1753,-77.1133,28.1462,-40.3661,0.0000
112.75,-0.1923,-3.9613,0.1755,-75.1133,30.1462,-42.3661,0.0000
112.75,-0.1469,-3.9625,0.1757,-73.1133,32.1462,-44.3661,0.0000
112.75,-0.1220,-3.9630,0.1759,-70.7133,34.5462,-46.7661,0.0000
112.75,-0.1129,-3.9632,0.1761,-69.1133,36.1462,-48.3661,0.0000
112.75,-0.1073,-3.9632,0.1763,-67.1133,38.1462,-50.3661,0.0000
113.45,-0.1045,-3.9631,0.1765,-69.1133,40.1462,-52.3661,0.0000
113.45,-0.5845,-3.4831,0.1763,-71.5133,37.7462,-49.9661,0.0000
113.45,-0.9045,-3.1631,0.1761,-73.1133,36.1462,-48.3661,0.0000
113.45,-1.3845,-2.6831,0.1759,-75.5133,34.5462,-45.9661,0.0000
113.45,-1.7845,-2.3144,0.1757,-77.5133,35.7462,-43.9661,0.0000
113.45,-2.1845,-2.0955,0.1757,-79.5133,34.5462,-41.9661,0.0000
113.45,-2.5045,-1.9981,0.1756,-81.1133,36.1462,-40.3661,0.0000
123.07,-2.7445,-1.9616,0.1756,-82.3133,34.9462,-39.1661,0.0000
123.07,-2.2645,-2.4259,0.1764,-79.9133,32.5462,-41.5661,0.0000
123.07,-1.9445,-2.6833,0.1766,-78.3133,30.9462,-43.1661,0.0000
123.07,-1.5445,-2.8441,0.1766,-76.3133,28.9462,-45.1661,0.0000
123.07,-1.0645,-2.9324,0.1765,-73.9133,31.3462,-47.5661,0.0000
123.07,-0.6645,-2.9685,0.1766,-71.9133,33.3462,-49.5661,0.0000
123.07,-0.3445,-2.9844,0.1767,-70.3133,34.9462,-51.1661,0.0000
123.07,0.0555,-2.9943,0.1769,-68.3133,36.9462,-53.1661,0.0000
123.07,0.3531,-2.9992,0.1771,-66.3133,38.9462,-55.1662,0.0000
123.07,0.5168,-3.0017,0.1774,-63.9132,41.3462,-57.5662,0.0000
123.07,0.5837,-3.0027,0.1776,-61.9132,43.3462,-59.5662,0.0000
123.07,0.6172,-3.0031,0.1778,-60.7132,45.3462,-61.5662,0.0000
123.07,0.6339,-3.0032,0.1781,-62.7132,47.3462,-63.5662,0.0000
123.07,0.6413,-3.0032,0.1783,-64.3132,48.9463,-65.1662,0.0000
130.83,0.6449,-3.0030,0.1785,-61.5132,51.7463,-67.9662,0.0000
130.83,1.0449,-2.6030,0.1771,-59.5132,49.7463,-65.9662,0.0000
132.89,1.4449,-2.2030,0.1763,-57.5132,47.7463,-63.9662,0.0000
132.89,1.9249,-1.7230,0.1733,-55.1132,45.3462,-61.5662,0.0000
132.89,2.3249,-1.3230,0.1720,-53.1132,43.3462,-59.5662,0.0000
132.89,2.6449,-1.0030,0.1713,-51.5132,41.7462,-57.9662,0.0000
132.89,2.9573,-0.5230,0.1706,-49.1132,39.3462,-55.5662,0.0000
132.89,3.0851,-0.1394,0.1702,-47.1132,37.3462,-53.5661,0.0000
132.89,3.1418,0.1151,0.1699,-45.5132,35.7462,-51.9661,0.0000
132.89,3.1808,0.2901,0.1696,-43.1132,33.3462,-49.5661,0.0000
132.89,3.1967,0.3618,0.1694,-41.1132,31.3462,-47.5661,0.0000
132.89,3.2047,0.3978,0.1692,-39.1131,29.3462,-45.5661,0.0000
132.89,3.2082,0.4138,0.1690,-37.5131,27.7462,-43.9661,0.0000
132.89,3.2103,0.4239,0.1688,-35.5131,25.7462,-41.9661,0.0000
132.89,3.2115,0.4296,0.1686,-33.1131,23.3462,-39.5661,0.0000
132.89,3.2119,0.4320,0.1684,-31.1131,21.3462,-37.5661,0.0000
132.89,3.2121,0.4331,0.1683,-29.5131,19.7462,-35.9661,0.0000
132.89,3.2122,0.4340,0.1681,-27.1131,17.3462,-33.5661,0.0000
132.89,3.2122,0.4344,0.1680,-25.1131,15.3462,-31.5661,0.0000
132.89,3.2121,0.4347,0.1679,-23.1131,13.3462,-29.5661,0.0000
132.89,3.2121,0.4350,0.1678,-21.1131,11.3462,-27.5661,0.0000
132.89,3.2120,0.4352,0.1677,-19.1131,9.3462,-25.5661,0.0000
133.07,3.2573,0.5153,0.1681,-17.1131,7.3462,-24.3661,0.0000
133.07,3.4383,0.8353,0.1702,-15.5131,5.7462,-25.9661,0.0000
135.77,3.5515,1.2353,0.1714,-13.5131,3.7462,-27.9661,0.0000
135.77,3.0715,1.7153,0.1727,-11.1131,1.3462,-25.5661,0.0000
135.77,2.7515,2.0353,0.1732,-9.5131,-0.2538,-23.9661,0.0000
135.77,2.3515,2.3228,0.1735,-7.5131,-2.2538,-21.9661,0.0000
135.77,1.8715,2.4810,0.1736,-5.1131,-4.6538,-19.5661,0.0000
135.77,1.4715,2.5458,0.1737,-3.1131,-6.6538,-17.5661,0.0000
135.77,1.0715,2.5782,0.1738,-1.1131,-8.6538,-15.5661,0.0000
135.77,0.7515,2.5927,0.1738,0.4869,-10.2538,-13.9661,0.0000
135.77,0.3515,2.6019,0.1739,2.4869,-12.2538,-11.9661,0.0000
135.77,-0.0485,2.6065,0.1739,4.4869,-14.2538,-9.9661,0.0000
135.77,-0.5285,2.6092,0.1740,6.8869,-16.6538,-7.5661,0.0000
135.77,-0.9285,2.6103,0.1741,8.8869,-18.6538,-5.5661,0.0000
135.77,-1.3229,2.6110,0.1742,10.8869,-20.6538,-3.5661,0.0000
135.77,-1.6205,2.6113,0.1743,12.4869,-22.2538,-1.9661,0.0000
135.77,-1.8252,2.6117,0.1745,14.8869,-24.6538,0.4339,0.0000
135.77,-1.8996,2.6118,0.1746,16.4869,-26.2538,2.0339,0.0000
135.77,-1.9508,2.6121,0.1747,18.8869,-28.6538,4.4339,0.0000
135.77,-1.9718,2.6122,0.1749,20.8869,-30.6538,6.4339,0.0000
135.77,-1.9823,2.6124,0.1751,22.8869,-32.6538,8.4339,0.0000
135.77,-1.9870,2.6125,0.1752,24.4869,-34.2538,10.0339,0.0000
135.77,-1.9902,2.6127,0.1755,26.8868,-36.6538,12.4339,0.0000
135.77,-1.9916,2.6129,0.1757,28.8868,-38.6538,14.4339,0.0000
135.77,-1.9922,2.6130,0.1758,30.4868,-40.2538,16.0339,0.0000
135.77,-1.9926,2.6131,0.1761,28.4868,-42.2538,18.0339,0.0000
135.77,-1.9928,2.6133,0.1764,26.0869,-44.6538,20.4339,0.0000
135.77,-1.9929,2.6134,0.1766,24.4869,-46.2538,22.0339,0.0000
135.77,-1.9930,2.6136,0.1769,22.4869,-48.2538,24.0339,0.0000
