rayhan3333/AutonomousSurgicalRobot/Assets/joint_log.csv
time,j0,j1,j2,j3,j4,j5,jaw
0.00,0.0000,0.0000,0.0000,0.0000,0.0000,0.0000,0.0000
0.11,0.0800,-0.0800,0.0007,-0.4000,0.4000,0.4000,0.0000
0.20,0.4800,-0.4643,0.0040,-2.4000,2.4000,2.4000,0.0000
0.30,0.8800,-0.7535,0.0073,-4.4000,4.4000,4.4000,0.0000
0.40,1.2800,-0.8981,0.0107,-6.4000,6.4000,6.4000,0.0000
0.50,1.6493,-0.9704,0.0140,-8.4000,8.4000,8.4000,0.0000
0.60,1.8713,-1.0065,0.0173,-10.4000,10.4000,10.4000,0.0000
0.70,1.9823,-1.0246,0.0207,-12.4000,12.4000,12.4000,0.0000
0.80,2.0378,-1.0336,0.0240,-14.4000,14.4000,14.4000,0.0000
0.90,2.0656,-1.0381,0.0273,-16.4000,16.4000,16.4000,0.0000
1.00,2.0794,-1.0404,0.0307,-18.4000,18.4000,18.4000,0.0000
1.10,2.0864,-1.0415,0.0340,-20.4000,20.4000,20.4000,0.0000
1.20,2.0898,-1.0421,0.0373,-22.4000,22.4000,22.4000,0.0000
1.30,2.0916,-1.0424,0.0407,-24.4000,24.4000,24.4000,0.0000
1.40,2.0925,-1.0425,0.0440,-26.4000,26.4000,26.4000,0.0000
1.50,2.0929,-1.0426,0.0473,-28.4000,28.4000,28.4000,0.0000
1.60,2.0931,-1.0426,0.0507,-30.4000,30.4000,30.4000,0.0000
1.70,2.0932,-1.0426,0.0540,-32.4000,32.4000,32.4000,0.0000
1.80,2.0933,-1.0427,0.0573,-34.4000,34.4000,34.4000,0.0000
1.90,2.0933,-1.0427,0.0607,-36.4000,36.4000,36.4000,0.0000
2.00,2.0933,-1.0427,0.0640,-38.4000,38.4000,38.4000,0.0000
2.10,2.0933,-1.0427,0.0673,-40.4000,40.4000,40.4000,0.0000
2.20,2.0933,-1.0427,0.0707,-42.4000,42.4000,42.4000,0.0000
2.30,2.0933,-1.0427,0.0740,-44.4000,44.4000,43.6000,0.0000
2.40,2.0933,-1.0427,0.0773,-46.4000,46.4000,42.4000,0.0000
2.50,2.0933,-1.0427,0.0807,-48.4000,48.4000,43.6000,0.0000
2.60,2.0933,-1.0427,0.0840,-50.4001,50.4001,41.6000,0.0000
2.70,2.0933,-1.0427,0.0873,-52.4001,52.4001,40.4000,0.0000
2.80,2.0933,-1.0427,0.0907,-54.4001,54.4001,41.6000,0.0000
2.90,2.0933,-1.0427,0.0940,-56.4001,55.6001,39.6000,0.0000
3.00,2.0933,-1.0427,0.0973,-58.4001,53.6001,37.6000,0.0000
3.10,2.0933,-1.0427,0.1007,-60.4001,52.4001,35.6000,0.0000
3.20,2.0933,-1.0427,0.1040,-62.4001,53.6001,33.6000,0.0000
3.30,2.0933,-1.0427,0.1073,-64.4001,51.6001,31.6000,0.0000
3.40,2.0933,-1.0427,0.1107,-66.4001,49.6000,29.6000,0.0000
3.50,2.0933,-1.0427,0.1140,-68.4001,48.4000,27.6000,0.0000
3.60,2.0933,-1.0427,0.1173,-70.4001,49.6000,25.6000,0.0000
3.70,2.0933,-1.0427,0.1207,-72.4001,47.6000,23.6000,0.0000
3.80,2.0933,-1.0427,0.1240,-74.4001,46.4000,21.6000,0.0000
3.90,2.0933,-1.0427,0.1273,-76.4002,47.6000,20.4000,0.0000
4.00,2.0933,-1.0427,0.1307,-78.4002,45.6000,21.6000,0.0000
4.10,2.0933,-1.0427,0.1340,-80.4002,44.4000,19.6000,0.0000
4.20,2.0933,-1.0427,0.1373,-82.4002,45.6000,17.6000,0.0000
4.30,2.0933,-1.0427,0.1407,-84.4002,43.6000,15.6000,0.0000
4.40,2.0933,-1.0427,0.1440,-86.4002,42.4000,13.6000,0.0000
4.50,2.0933,-1.0427,0.1473,-88.4002,43.6000,11.6000,0.0000
4.60,2.1733,-0.9627,0.1501,-89.6002,41.6000,9.6000,0.0000
4.70,2.5733,-0.5627,0.1503,-87.6002,39.6000,7.6000,0.0000
4.80,2.9733,-0.1627,0.1503,-85.6002,37.6000,5.6000,0.0000
4.90,3.3733,0.2373,0.1502,-83.6002,35.6000,3.6000,0.0000
5.00,3.7732,0.6373,0.1500,-81.6002,33.6000,1.6000,0.0000
5.10,4.1329,1.0373,0.1498,-79.6002,31.6000,-0.4000,0.0000
5.20,4.3127,1.4373,0.1496,-77.6002,29.6000,-2.4000,0.0000
5.30,4.4026,1.8373,0.1494,-75.6001,27.6000,-4.4000,0.0000
5.40,4.4475,2.2373,0.1492,-73.6001,25.6000,-5.6000,0.0000
5.50,4.4700,2.6373,0.1491,-71.6001,23.6000,-3.6000,0.0000
5.60,4.4812,3.0373,0.1489,-69.6001,21.6000,-1.6000,0.0000
5.70,4.4869,3.4373,0.1487,-67.6001,19.6000,-0.4000,0.0000
5.80,4.4897,3.8104,0.1486,-65.6001,17.6000,-1.6000,0.0000
5.90,4.4911,4.0489,0.1485,-63.6001,15.6000,0.4000,0.0000
6.00,4.4918,4.1682,0.1484,-62.4001,13.6000,1.6000,0.0000
6.10,4.4921,4.2278,0.1483,-63.6001,11.6000,0.4000,0.0000
6.20,4.4123,4.2184,0.1488,-61.6001,9.6000,1.6000,0.0000
6.30,4.0123,4.0568,0.1520,-59.6001,7.6000,-0.4000,0.0000
6.40,3.6123,3.9760,0.1543,-57.6001,5.6000,-2.4000,0.0000
6.50,3.2123,3.9356,0.1554,-55.6001,4.4000,-4.4000,0.0000
6.60,2.8123,3.9153,0.1559,-53.6001,6.4000,-6.4000,0.0000
6.70,2.4123,3.9052,0.1562,-51.6001,8.4000,-8.4000,0.0000
6.80,2.0123,3.9002,0.1564,-49.6000,10.4000,-10.4000,0.0000
6.90,1.6123,3.8977,0.1565,-47.6000,12.4000,-12.4000,0.0000
7.00,1.2123,3.8964,0.1566,-45.6000,14.4000,-14.4000,0.0000
7.10,0.8123,3.8958,0.1567,-43.6000,16.4000,-16.4000,0.0000
7.20,0.4123,3.8955,0.1568,-41.6000,18.4000,-18.4000,0.0000
7.30,0.0123,3.8953,0.1569,-39.6000,20.4000,-20.4000,0.0000
7.40,-0.3877,3.8952,0.1570,-37.6000,22.4000,-22.4000,0.0000
7.50,-0.7877,3.8952,0.1571,-35.6000,24.4000,-24.4000,0.0000
7.60,-1.1877,3.8952,0.1572,-33.6000,25.6000,-26.4000,0.0000
7.70,-1.5877,3.8952,0.1573,-31.6000,24.4000,-27.6000,0.0000
7.80,-1.9877,3.8951,0.1573,-29.6000,25.6000,-26.4000,0.0000
7.90,-2.3877,3.8951,0.1574,-27.6000,24.4000,-27.6000,0.0000
8.00,-2.7877,3.8951,0.1574,-25.6000,25.6000,-25.6000,0.0000
8.10,-3.1877,3.8951,0.1574,-23.6000,23.6000,-23.6000,0.0000
8.20,-3.5877,3.8951,0.1574,-21.6000,21.6000,-21.6000,0.0000
8.30,-3.9877,3.8951,0.1573,-19.6000,19.6000,-19.6000,0.0000
8.40,-4.3877,3.8951,0.1571,-17.6000,17.6000,-17.6000,0.0000
8.50,-4.7697,3.8951,0.1570,-15.6000,15.6000,-15.6000,0.0000
8.60,-5.0484,3.8951,0.1569,-13.6000,13.6000,-13.6000,0.0000
8.70,-5.1878,3.8951,0.1568,-11.6000,11.6000,-11.6000,0.0000
8.80,-5.2574,3.8951,0.1567,-9.6000,9.6000,-9.6000,0.0000
8.90,-5.2923,3.8951,0.1567,-7.6000,7.6000,-7.6000,0.0000
9.00,-5.3097,3.8951,0.1566,-5.6000,5.6000,-5.6000,0.0000
9.10,-5.3184,3.8951,0.1565,-3.6000,3.6000,-3.6000,0.0000
9.20,-5.2423,3.8151,0.1564,-2.4000,1.6000,-1.6000,0.0000
9.30,-4.8423,3.4151,0.1559,-4.4000,-0.4000,0.4000,0.0000
9.40,-4.4423,3.0151,0.1556,-6.4000,-1.6000,2.4000,0.0000
9.50,-4.0423,2.6151,0.1555,-8.4000,0.4000,4.4000,0.0000
9.60,-3.6423,2.2151,0.1554,-10.4000,1.6000,5.6000,0.0000
9.70,-3.2800,1.8151,0.1554,-12.4000,0.4000,4.4000,0.0000
9.80,-3.0897,1.4151,0.1554,-14.4000,2.4000,5.6000,0.0000
9.90,-2.9945,1.0151,0.1554,-16.4000,3.6000,4.4000,0.0000
10.00,-2.9469,0.6151,0.1554,-18.4000,2.4000,5.6000,0.0000
10.10,-2.9231,0.2151,0.1554,-20.4000,3.6000,3.6000,0.0000
10.20,-2.9113,-0.1849,0.1554,-22.4000,2.4000,2.4000,0.0000
10.30,-2.9053,-0.5849,0.1554,-24.4000,3.6000,3.6000,0.0000
10.40,-2.9023,-0.9849,0.1554,-26.4000,2.4000,2.4000,0.0000
10.50,-2.9008,-1.3849,0.1554,-28.4000,3.6000,3.6000,0.0000
10.60,-2.9001,-1.7849,0.1554,-30.4000,2.4000,1.6000,0.0000
10.70,-2.8997,-2.1849,0.1554,-32.4000,4.4000,0.4000,0.0000
10.80,-2.8995,-2.5849,0.1554,-34.4000,5.6000,1.6000,0.0000
10.90,-2.8995,-2.9849,0.1554,-36.4000,4.4000,0.4000,0.0000
11.00,-2.8994,-3.3849,0.1554,-37.6000,5.6000,1.6000,0.0000
11.10,-2.8994,-3.7849,0.1554,-36.4000,4.4000,0.4000,0.0000
11.20,-2.8994,-4.1849,0.1554,-37.6000,5.6000,1.6000,0.0000
11.30,-2.8194,-4.5849,0.1556,-35.6000,4.4000,0.4000,0.0000
11.40,-2.4194,-4.9849,0.1564,-33.6000,6.4000,2.4000,0.0000
11.50,-2.0194,-5.3849,0.1568,-31.6000,8.4000,4.4000,0.0000
11.60,-1.6194,-5.7849,0.1570,-29.6000,10.4000,6.4000,0.0000
11.70,-1.2194,-6.1849,0.1570,-27.6000,11.6000,7.6000,0.0000
11.80,-0.9794,-6.5113,0.1559,-26.0000,9.6000,5.6000,0.0000
11.90,-1.3794,-6.5405,0.1533,-26.0000,7.6000,3.6000,0.0000
12.00,-1.7794,-6.5550,0.1519,-26.0000,6.4000,1.6000,0.0000
12.10,-2.1794,-6.5623,0.1513,-26.0000,8.4000,-0.4000,0.0000
12.20,-2.5794,-6.5660,0.1509,-26.0000,10.4000,-2.4000,0.0000
12.30,-2.9794,-6.5678,0.1508,-26.0000,12.4000,-4.4000,0.0000
12.40,-3.3472,-6.5687,0.1508,-26.0000,14.4000,-6.4000,0.0000
12.50,-3.5627,-6.5691,0.1508,-26.0000,16.4000,-8.4000,0.0000
12.60,-3.6704,-6.5694,0.1509,-26.0000,18.4000,-10.4000,0.0000
12.70,-3.7242,-6.5695,0.1510,-25.6000,20.4000,-12.4000,0.0000
12.80,-3.7512,-6.5695,0.1511,-23.6000,22.4000,-14.4000,0.0000
12.90,-3.7646,-6.5696,0.1512,-21.6000,24.4000,-16.4000,0.0000
13.00,-3.7713,-6.5696,0.1513,-19.6000,26.4000,-18.4000,0.0000
13.10,-3.7747,-6.5696,0.1515,-17.6000,28.4000,-20.4000,0.0000
13.20,-3.7764,-6.5696,0.1516,-15.6000,30.4000,-22.4000,0.0000
13.30,-3.7772,-6.5696,0.1518,-13.6000,32.4000,-24.4000,0.0000
13.40,-3.7777,-6.5696,0.1520,-11.6000,34.4000,-26.4000,0.0000
13.50,-3.7779,-6.5696,0.1522,-9.6000,36.4000,-28.4000,0.0000
13.60,-3.7780,-6.5696,0.1524,-7.6000,38.4000,-30.4000,0.0000
13.70,-3.7780,-6.5696,0.1526,-5.6000,40.4000,-32.4000,0.0000
13.80,-3.8581,-6.4896,0.1529,-3.6000,42.4000,-34.4000,0.0000
13.90,-4.2581,-6.0896,0.1532,-1.6000,44.4000,-36.4000,0.0000
14.00,-4.6467,-5.6896,0.1535,0.4000,46.4000,-38.4000,0.0000
14.10,-4.9557,-5.2896,0.1538,2.4000,48.4000,-40.4000,0.0000
14.20,-5.1103,-4.8896,0.1541,4.4000,50.4001,-42.4000,0.0000
14.30,-5.1875,-4.5272,0.1544,6.4000,52.4001,-44.4000,0.0000
14.40,-5.2261,-4.3364,0.1547,8.4000,54.4001,-46.4000,0.0000
14.50,-5.2455,-4.2410,0.1550,10.4000,56.4001,-48.4000,0.0000
14.60,-5.2551,-4.1933,0.1553,12.4000,58.4001,-50.4001,0.0000
14.70,-5.2599,-4.1695,0.1557,14.4000,60.4001,-52.4001,0.0000
14.80,-5.2624,-4.1576,0.1560,16.4000,62.4001,-54.4001,0.0000
14.90,-5.2636,-4.1516,0.1564,18.4000,63.6001,-56.4001,0.0000
15.00,-5.2642,-4.1486,0.1567,20.4000,62.4001,-58.4001,0.0000
15.10,-5.2645,-4.1471,0.1567,22.4000,64.4001,-60.4001,0.0000
15.20,-5.2646,-4.1464,0.1570,24.4000,65.6001,-62.4001,0.0000
15.30,-5.2647,-4.1460,0.1572,26.4000,64.4001,-63.6001,0.0000
15.40,-5.2647,-4.1458,0.1572,28.4000,65.6001,-61.6001,0.0000
15.50,-5.2648,-4.1457,0.1573,30.4000,63.6001,-59.6001,0.0000
15.60,-5.2648,-4.1457,0.1572,32.4000,61.6001,-57.6001,0.0000
15.70,-5.2648,-4.1457,0.1569,34.4000,59.6001,-55.6001,0.0000
15.80,-5.2648,-4.1457,0.1566,36.4000,57.6001,-53.6001,0.0000
15.90,-5.2648,-4.1457,0.1562,38.4000,55.6001,-51.6001,0.0000
16.00,-5.2648,-4.1456,0.1559,40.4000,53.6001,-49.6000,0.0000
16.10,-5.2648,-4.1456,0.1555,42.4000,51.6001,-47.6000,0.0000
16.20,-5.2648,-4.1456,0.1552,44.4000,49.6000,-45.6000,0.0000
16.30,-5.2648,-4.1456,0.1549,46.4000,47.6000,-43.6000,0.0000
16.40,-5.2648,-4.1456,0.1546,48.4000,45.6000,-41.6000,0.0000
16.50,-5.2648,-4.1456,0.1543,50.4001,43.6000,-39.6000,0.0000
16.60,-5.2648,-4.1456,0.1540,52.4001,41.6000,-37.6000,0.0000
16.70,-5.2648,-4.1456,0.1537,54.4001,39.6000,-35.6000,0.0000
16.80,-5.2648,-4.1456,0.1534,56.4001,37.6000,-33.6000,0.0000
16.90,-5.2648,-4.1456,0.1532,58.4001,35.6000,-31.6000,0.0000
17.00,-5.2648,-4.1456,0.1529,60.4001,33.6000,-29.6000,0.0000
17.10,-5.2648,-4.1456,0.1527,62.4001,31.6000,-27.6000,0.0000
17.20,-5.2648,-4.1456,0.1525,64.4001,29.6000,-25.6000,0.0000
17.31,-5.2648,-4.1456,0.1523,66.4001,27.6000,-23.6000,0.0000
17.40,-5.2648,-4.1456,0.1521,68.4001,25.6000,-21.6000,0.0000
17.50,-5.2648,-4.1456,0.1519,70.4001,23.6000,-19.6000,0.0000
17.60,-5.2648,-4.1456,0.1517,72.4001,21.6000,-17.6000,0.0000
17.70,-5.2648,-4.1456,0.1516,74.4001,19.6000,-15.6000,0.0000
17.80,-5.2648,-4.1456,0.1514,76.4002,17.6000,-13.6000,0.0000
17.90,-5.2648,-4.1456,0.1513,78.4002,15.6000,-11.6000,0.0000
18.00,-5.2648,-4.1456,0.1512,80.4002,13.6000,-9.6000,0.0000
18.10,-5.2648,-4.1456,0.1511,82.4002,11.6000,-7.6000,0.0000
18.20,-5.2648,-4.1456,0.1510,84.4002,9.6000,-5.6000,0.0000
18.30,-5.2648,-4.1456,0.1509,86.4002,7.6000,-3.6000,0.0000
18.40,-5.1848,-4.2256,0.1515,87.6002,6.4000,-1.6000,0.0000
18.50,-4.7848,-4.6256,0.1549,85.6002,7.6000,0.4000,0.0000
18.60,-4.3848,-5.0256,0.1579,83.6002,6.4000,2.4000,0.0000
18.70,-3.9848,-5.4256,0.1594,81.6002,8.4000,4.4000,0.0000
18.80,-3.5848,-5.8256,0.1601,79.6002,10.4000,6.4000,0.0000
18.90,-3.1848,-6.2256,0.1606,77.6002,12.4000,8.4000,0.0000
19.00,-2.7848,-6.6205,0.1608,75.6001,14.4000,10.4000,0.0000
19.10,-2.3848,-6.9574,0.1610,73.6001,16.4000,12.4000,0.0000
19.21,-1.9848,-7.1258,0.1611,71.6001,17.6000,14.4000,0.0000
19.30,-1.5848,-7.2101,0.1612,69.6001,16.4000,15.6000,0.0000
19.40,-1.1848,-7.2522,0.1612,67.6001,17.6000,14.4000,0.0000
19.50,-0.7848,-7.2732,0.1613,65.6001,16.4000,15.6000,0.0000
19.60,-0.3848,-7.2838,0.1612,63.6001,17.6000,13.6000,0.0000
19.70,0.0152,-7.2890,0.1613,61.6001,16.4000,11.6000,0.0000
19.80,0.4152,-7.2916,0.1612,59.6001,17.6000,10.4000,0.0000
19.90,0.8152,-7.2930,0.1613,57.6001,16.4000,11.6000,0.0000
20.00,1.0552,-7.2135,0.1619,55.6001,18.4000,10.0000,0.0000
20.10,0.6552,-6.8135,0.1641,53.6001,20.4000,10.4000,0.0000
20.20,0.2552,-6.4135,0.1619,51.6001,22.4000,12.4000,0.0000
20.30,-0.1448,-6.0135,0.1609,49.6000,24.4000,14.4000,0.0000
20.41,-0.5448,-5.6136,0.1604,47.6000,26.4000,16.4000,0.0000
20.50,-0.9448,-5.2136,0.1603,45.6000,28.4000,18.4000,0.0000
20.60,-1.3448,-4.8136,0.1603,43.6000,30.4000,20.4000,0.0000
20.70,-1.7448,-4.4136,0.1599,42.4000,31.6000,21.6000,0.0000
20.80,-2.1448,-4.0136,0.1578,44.4000,29.6000,19.6000,0.0000
20.91,-2.5448,-3.6136,0.1570,45.6000,28.4000,18.4000,0.0000
21.00,-2.9448,-3.2136,0.1579,43.6000,30.4000,20.4000,0.0000
21.10,-3.3448,-2.8136,0.1584,41.6000,32.4000,22.4000,0.0000
21.20,-3.7448,-2.4136,0.1588,39.6000,34.4000,24.4000,0.0000
21.30,-4.1448,-2.0136,0.1591,37.6000,36.4000,26.4000,0.0000
21.40,-4.5448,-1.6136,0.1593,35.6000,38.4000,28.4000,0.0000
21.50,-4.9448,-1.2136,0.1589,34.4000,39.6000,29.6000,0.0000
21.60,-5.3448,-0.8136,0.1557,36.4000,37.6000,27.6000,0.0000
21.70,-5.6584,-0.5736,0.1533,38.4000,35.6000,25.6000,0.0000
21.80,-5.6297,-0.9736,0.1510,40.4000,33.6000,23.6000,0.0000
21.90,-5.6153,-1.3736,0.1497,42.4000,31.6000,21.6000,0.0000
22.00,-5.6082,-1.7736,0.1490,44.4000,29.6000,19.6000,0.0000
22.10,-5.6046,-2.1548,0.1485,46.4000,27.6000,17.6000,0.0000
22.20,-5.6028,-2.4304,0.1482,48.4000,25.6000,15.6000,0.0000
22.30,-5.6019,-2.5681,0.1479,50.4001,23.6000,13.6000,0.0000
22.40,-5.6014,-2.6370,0.1477,52.4001,21.6000,11.6000,0.0000
22.50,-5.6012,-2.6715,0.1476,54.4001,19.6000,9.6000,0.0000
22.60,-5.6011,-2.6887,0.1474,56.4001,17.6000,7.6000,0.0000
22.70,-5.6010,-2.6973,0.1473,58.4001,15.6000,5.6000,0.0000
22.80,-5.6010,-2.7016,0.1472,60.4001,13.6000,3.6000,0.0000
22.90,-5.6229,-2.6235,0.1470,62.4001,12.4000,1.6000,0.0000
23.00,-5.7213,-2.2235,0.1467,64.4001,14.4000,0.4000,0.0000
23.10,-5.7705,-1.8235,0.1467,66.4001,15.6000,1.6000,0.0000
23.21,-5.7880,-1.4235,0.1473,67.6001,14.4000,0.4000,0.0000
23.30,-5.7681,-1.0235,0.1506,65.6001,16.4000,2.4000,0.0000
23.40,-5.7582,-0.6235,0.1539,63.6001,18.4000,4.4000,0.0000
23.50,-5.7532,-0.2235,0.1568,61.6001,20.4000,6.4000,0.0000
23.60,-5.7507,0.1765,0.1583,59.6001,22.4000,8.4000,0.0000
23.70,-5.7494,0.5765,0.1591,57.6001,24.4000,10.4000,0.0000
23.80,-5.7488,0.9765,0.1595,55.6001,26.4000,12.4000,0.0000
23.90,-5.7485,1.3765,0.1599,53.6001,28.4000,14.4000,0.0000
24.00,-5.7484,1.7765,0.1601,51.6001,30.4000,16.4000,0.0000
24.10,-5.7483,2.1565,0.1603,49.6000,32.4000,18.4000,0.0000
24.20,-5.7482,2.4265,0.1605,47.6000,34.4000,20.4000,0.0000
24.30,-5.7482,2.5616,0.1607,45.6000,36.4000,22.4000,0.0000
24.41,-5.7482,2.6291,0.1609,43.6000,38.4000,24.4000,0.0000
24.50,-5.7482,2.6628,0.1612,41.6000,40.4000,26.4000,0.0000
24.60,-5.7482,2.6797,0.1614,39.6000,42.4000,28.4000,0.0000
24.70,-5.7482,2.6882,0.1616,37.6000,44.4000,29.6000,0.0000
24.81,-5.7482,2.6924,0.1619,35.6000,46.4000,27.6000,0.0000
24.90,-5.7482,2.6945,0.1622,33.6000,48.4000,25.6000,0.0000
25.00,-5.7482,2.6955,0.1625,31.6000,50.4001,23.6000,0.0000
25.10,-5.7482,2.6961,0.1628,29.6000,52.4001,21.6000,0.0000
25.20,-5.7482,2.6963,0.1631,27.6000,53.6001,19.6000,0.0000
25.30,-5.7482,2.6965,0.1633,25.6000,51.6001,18.4000,0.0000
25.40,-5.7482,2.6965,0.1633,23.6000,49.6000,20.4000,0.0000
25.50,-5.7482,2.6966,0.1631,21.6000,48.4000,22.4000,0.0000
25.60,-5.7482,2.6966,0.1629,19.6000,50.4001,24.4000,0.0000
25.70,-5.7482,2.6966,0.1630,17.6000,52.4001,26.4000,0.0000
25.80,-5.7482,2.6966,0.1632,15.6000,54.4001,28.4000,0.0000
25.90,-5.7482,2.6966,0.1634,13.6000,55.6001,30.4000,0.0000
26.00,-5.7482,2.6966,0.1637,11.6000,54.4001,32.4000,0.0000
26.10,-5.7482,2.6966,0.1637,9.6000,56.4001,34.4000,0.0000
26.20,-5.7482,2.6966,0.1639,7.6000,58.4001,36.4000,0.0000
26.30,-5.7482,2.6966,0.1641,5.6000,59.6001,38.4000,0.0000
26.40,-5.7482,2.6966,0.1644,3.6000,58.4001,40.4000,0.0000
26.50,-5.7482,2.6966,0.1644,1.6000,60.4001,42.4000,0.0000
26.60,-5.7482,2.6966,0.1646,-0.4000,61.6001,44.4000,0.0000
26.70,-5.7482,2.6966,0.1648,-2.4000,60.4001,46.4000,0.0000
26.80,-5.7482,2.6966,0.1648,-4.4000,62.4001,48.4000,0.0000
26.90,-5.7482,2.6966,0.1650,-6.4000,63.6001,50.4001,0.0000
27.00,-5.7482,2.6966,0.1652,-8.4000,62.4001,52.4001,0.0000
27.10,-5.7482,2.6966,0.1652,-10.4000,64.4001,54.4001,0.0000
27.20,-5.7482,2.6966,0.1654,-12.4000,65.6001,56.4001,0.0000
27.30,-5.7482,2.6966,0.1656,-14.4000,64.4001,58.4001,0.0000
27.40,-5.7482,2.6966,0.1656,-16.4000,65.6001,60.4001,0.0000
27.50,-5.7482,2.6966,0.1657,-18.4000,64.4001,62.4001,0.0000
27.60,-5.7482,2.6966,0.1656,-20.4000,65.6001,64.4001,0.0000
27.70,-5.7482,2.6966,0.1657,-22.4000,64.4001,65.6001,0.0000
27.80,-5.7482,2.6966,0.1656,-24.4000,65.6001,64.4001,0.0000
27.90,-5.7482,2.6966,0.1657,-26.4000,63.6001,65.6001,0.0000
28.00,-5.7482,2.6966,0.1656,-28.4000,61.6001,63.6001,0.0000
28.10,-5.7482,2.6966,0.1653,-30.4000,59.6001,61.6001,0.0000
28.20,-5.7482,2.6966,0.1650,-32.4000,57.6001,59.6001,0.0000
28.30,-5.7482,2.6966,0.1646,-34.4000,55.6001,57.6001,0.0000
28.40,-5.7482,2.6966,0.1643,-36.4000,53.6001,55.6001,0.0000
28.50,-5.7482,2.6966,0.1639,-38.4000,51.6001,53.6001,0.0000
28.60,-5.7482,2.6966,0.1636,-40.4000,49.6000,51.6001,0.0000
28.70,-5.7482,2.6966,0.1633,-42.4000,47.6000,49.6000,0.0000
28.80,-5.7482,2.6966,0.1629,-44.4000,45.6000,47.6000,0.0000
28.90,-5.7482,2.6966,0.1626,-46.4000,43.6000,45.6000,0.0000
29.00,-5.7482,2.6966,0.1623,-48.4000,41.6000,43.6000,0.0000
29.10,-5.7482,2.6966,0.1621,-50.4001,39.6000,41.6000,0.0000
29.20,-5.7482,2.6966,0.1618,-52.4001,37.6000,39.6000,0.0000
29.30,-5.7482,2.6966,0.1615,-54.4001,35.6000,37.6000,0.0000
29.40,-5.7482,2.6966,0.1613,-56.4001,33.6000,35.6000,0.0000
29.50,-5.7482,2.6966,0.1611,-58.4001,31.6000,33.6000,0.0000
29.60,-5.7482,2.6966,0.1609,-60.4001,29.6000,31.6000,0.0000
29.70,-5.7482,2.6966,0.1607,-62.4001,27.6000,29.6000,0.0000
29.80,-5.7482,2.6966,0.1605,-64.4001,25.6000,27.6000,0.0000
29.90,-5.7482,2.6966,0.1603,-66.4001,23.6000,25.6000,0.0000
30.00,-5.7482,2.6966,0.1601,-68.4001,21.6000,23.6000,0.0000
30.10,-5.7482,2.6966,0.1600,-70.4001,19.6000,21.6000,0.0000
30.20,-5.7482,2.6966,0.1598,-72.4001,17.6000,19.6000,0.0000
30.30,-5.7482,2.6966,0.1597,-74.4001,15.6000,17.6000,0.0000
30.40,-5.7482,2.6966,0.1596,-76.4002,13.6000,15.6000,0.0000
30.50,-5.7482,2.6966,0.1595,-78.4002,12.4000,13.6000,0.0000
30.60,-5.7482,2.6966,0.1594,-80.4002,13.6000,11.6000,0.0000
30.70,-5.7482,2.6966,0.1594,-82.4002,11.6000,9.6000,0.0000
30.80,-5.6682,2.7766,0.1591,-83.6002,9.6000,7.6000,0.0000
30.90,-5.2682,3.1766,0.1579,-81.6002,7.6000,5.6000,0.0000
31.00,-4.9677,3.5201,0.1567,-79.6002,5.6000,3.6000,0.0000
31.10,-5.0554,3.6260,0.1536,-77.6002,4.4000,1.6000,0.0000
31.20,-5.0992,3.6789,0.1519,-75.6001,6.4000,-0.4000,0.0000
31.30,-5.1211,3.7054,0.1510,-73.6001,8.4000,-2.4000,0.0000
31.40,-5.1321,3.7186,0.1506,-71.6001,10.4000,-4.4000,0.0000
31.50,-5.1376,3.7252,0.1505,-69.6001,12.4000,-6.4000,0.0000
31.60,-5.1403,3.7285,0.1504,-67.6001,14.4000,-8.4000,0.0000
31.70,-5.1417,3.7302,0.1504,-65.6001,16.4000,-10.4000,0.0000
31.80,-5.1424,3.7310,0.1505,-63.6001,18.4000,-12.4000,0.0000
31.90,-5.0627,3.8114,0.1512,-61.6001,19.6000,-13.6000,0.0000
32.01,-4.6627,4.2114,0.1545,-59.6001,17.6000,-11.6000,0.0000
32.10,-4.2627,4.6114,0.1574,-57.6001,15.6000,-9.6000,0.0000
32.20,-3.8627,5.0114,0.1588,-55.6001,13.6000,-7.6000,0.0000
32.30,-3.4627,5.4114,0.1594,-53.6001,11.6000,-5.6000,0.0000
32.40,-3.0627,5.7852,0.1597,-51.6001,9.6000,-3.6000,0.0000
32.50,-2.6627,6.0275,0.1598,-49.6000,7.6000,-1.6000,0.0000
32.61,-2.2627,6.1486,0.1598,-47.6000,5.6000,0.1830,0.0000
32.70,-1.8681,6.2092,0.1598,-45.6000,3.6000,0.7227,0.0000
32.80,-1.5326,6.2395,0.1598,-43.6000,1.6000,0.3529,0.0000
32.90,-1.3463,6.2667,0.1591,-41.6000,0.4000,1.5529,0.0000
33.00,-1.1790,6.3286,0.1558,-39.6000,2.4000,-0.4471,0.0000
33.11,-1.0247,6.2762,0.1537,-38.4000,3.6000,-1.6471,0.0000
33.20,-0.6247,5.8762,0.1556,-40.4000,2.4000,0.3529,0.0000
33.30,-0.2247,5.4762,0.1565,-42.4000,3.6000,2.3529,0.0000
33.40,0.1753,5.0762,0.1570,-44.4000,2.4000,4.3529,0.0000
33.50,0.5753,4.6762,0.1573,-46.4000,3.6000,5.5529,0.0000
33.60,0.9753,4.2800,0.1574,-48.4000,2.4000,4.3529,0.0000
33.70,1.3753,3.9372,0.1574,-50.4001,3.6000,5.5529,0.0000
33.80,1.7753,3.7658,0.1575,-52.4001,2.4000,3.5529,0.0000
33.90,2.1753,3.6801,0.1575,-54.4001,3.6000,2.3529,0.0000
34.00,2.4898,3.7220,0.1570,-55.6001,2.4000,3.5529,0.0000
34.10,2.3875,4.1220,0.1546,-53.6001,4.4000,1.5529,0.0000
34.20,1.9875,4.5220,0.1515,-51.6001,6.4000,-0.4471,0.0000
34.31,1.7475,4.7620,0.1499,-50.4001,8.4000,-1.6471,0.0000
34.40,1.9875,4.3620,0.1492,0.0000,0.4000,-0.4000,0.8000
34.50,1.5875,3.9620,0.1459,0.0000,0.4000,-0.4000,4.8000
34.61,1.1875,3.5620,0.1426,0.0000,0.0000,0.0000,8.8000
34.70,0.7875,3.1620,0.1392,0.0000,0.4000,-0.4000,12.8000
34.81,0.3875,2.7620,0.1359,0.0000,0.4000,-0.4000,16.8000
34.91,0.0215,2.3620,0.1326,0.0000,0.4000,-0.4000,20.8000
35.00,-0.1855,1.9620,0.1292,0.0000,0.4000,0.4000,24.8000
35.10,-0.2889,1.5620,0.1259,0.0000,0.4000,0.4000,28.8000
35.20,-0.3407,1.1620,0.1226,0.0000,0.4000,0.4000,32.8000
35.30,-0.3666,0.7620,0.1192,0.0000,0.4000,0.4000,36.8000
35.41,-0.3795,0.3620,0.1159,0.0000,0.0000,0.0000,40.8000
35.50,-0.3860,-0.0380,0.1126,0.0000,0.4000,0.4000,44.8000
35.60,-0.3892,-0.4320,0.1092,0.0000,-0.4000,0.4000,48.8000
35.70,-0.3908,-0.7654,0.1059,0.0000,-0.4000,0.4000,52.8000
35.80,-0.3916,-0.9320,0.1026,0.0000,-0.4000,0.4000,56.8000
35.90,-0.3920,-1.0154,0.0992,0.0000,-0.4000,0.4000,60.8000
36.00,-0.3922,-1.0570,0.0959,0.0000,-0.4000,0.4000,64.8000
36.10,-0.3923,-1.0779,0.0926,0.0000,-0.4000,0.4000,68.8000
36.20,-0.3924,-1.0883,0.0895,0.0000,-0.4000,0.4000,72.8000
36.30,-0.3759,-1.0471,0.0886,0.0000,-0.4000,0.4000,76.8000
36.40,-0.3014,-0.8412,0.0919,0.0000,-0.4000,0.4000,80.8000
36.50,-0.2641,-0.7383,0.0952,0.0000,-0.4000,0.4000,84.8000
36.60,-0.2455,-0.6868,0.0986,0.0000,-0.4000,0.4000,88.8001
36.70,-0.2362,-0.6611,0.1019,0.0000,-0.4000,0.4000,90.0000
36.80,-0.2316,-0.6482,0.1052,0.0000,-0.4000,0.4000,90.0000
36.90,-0.2292,-0.6418,0.1086,0.0000,-0.4000,0.4000,90.0000
37.00,-0.2281,-0.6386,0.1119,0.0000,-0.4000,0.4000,90.0000
37.10,-0.2275,-0.6369,0.1152,0.0000,-0.4000,0.4000,90.0000
37.20,-0.2272,-0.6361,0.1186,0.0000,-0.4000,0.4000,90.0000
37.30,-0.2271,-0.6357,0.1219,0.0000,-0.4000,0.4000,90.0000
37.40,-0.2270,-0.6355,0.1252,0.0000,-0.4000,0.4000,90.0000
37.50,-0.2269,-0.6354,0.1286,0.0000,-0.4000,0.4000,90.0000
37.60,-0.2269,-0.6354,0.1319,0.0000,-0.4000,0.4000,90.0000
37.70,-0.2269,-0.6354,0.1352,0.0000,-0.4000,0.4000,90.0000
37.80,-0.2269,-0.6353,0.1386,0.0000,-0.4000,0.4000,90.0000
37.90,-0.2269,-0.6353,0.1419,0.0000,-0.4000,0.4000,90.0000
38.00,-0.2269,-0.6353,0.1450,0.0000,-0.4000,0.4000,89.2000
38.10,-0.2269,-0.6353,0.1468,0.0000,-0.4000,0.4000,85.2000
38.20,-0.2269,-0.6353,0.1476,0.0000,-0.4000,0.4000,81.2000
38.30,-0.2269,-0.6353,0.1481,0.0000,-0.4000,0.4000,77.2000
38.40,-0.2269,-0.6353,0.1483,0.0000,-0.4000,0.4000,73.1999
38.50,-0.2269,-0.6353,0.1484,0.0000,-0.4000,0.4000,69.1999
38.60,-0.2269,-0.6353,0.1485,0.0000,-0.4000,0.4000,65.1999
38.70,-0.2269,-0.6353,0.1485,0.0000,-0.4000,0.4000,61.1999
38.80,-0.2269,-0.6353,0.1485,0.0000,-0.4000,0.4000,57.1999
38.90,-0.2269,-0.6353,0.1485,0.0000,-0.4000,0.4000,53.1999
39.00,-0.2269,-0.6353,0.1485,0.0000,-0.4000,0.4000,49.1999
39.10,-0.2269,-0.6353,0.1485,0.0000,-0.4000,0.4000,45.1999
39.20,-0.2269,-0.6353,0.1485,0.0000,-0.4000,0.4000,41.1999
39.30,-0.2269,-0.6353,0.1485,0.0000,-0.4000,0.4000,37.1999
39.40,-0.2269,-0.6353,0.1485,0.0000,-0.4000,0.4000,33.1999
39.50,-0.2435,-0.6817,0.1479,0.0000,-0.4000,0.4000,29.1999
39.60,-0.3179,-0.8902,0.1445,0.0000,-0.4000,0.4000,25.1999
39.70,-0.3552,-0.9944,0.1412,0.0000,-0.4000,0.4000,21.1999
39.80,-0.3738,-1.0466,0.1379,0.0000,-0.4000,0.4000,17.2000
39.90,-0.3831,-1.0726,0.1345,0.0000,-0.4000,0.4000,13.2000
40.00,-0.3878,-1.0857,0.1312,0.0000,-0.4000,0.4000,9.1999
40.10,-0.3901,-1.0922,0.1279,0.0000,-0.4000,0.4000,5.1999
40.20,-0.3913,-1.0954,0.1245,0.0000,-0.4000,0.4000,1.1999
40.30,-0.3918,-1.0971,0.1212,0.0000,-0.4000,0.4000,0.0000
40.40,-0.3921,-1.0979,0.1179,0.0000,-0.4000,0.4000,0.0000
40.50,-0.3923,-1.0983,0.1145,0.0000,-0.4000,0.4000,0.0000
40.60,-0.3924,-1.0985,0.1112,0.0000,-0.4000,0.4000,0.0000
40.70,-0.3924,-1.0986,0.1079,0.0000,-0.4000,0.4000,0.0000
40.80,-0.3924,-1.0986,0.1045,0.0000,-0.4000,0.4000,0.0000
40.90,-0.3924,-1.0987,0.1012,0.0000,-0.4000,0.4000,0.0000
